dist/2.0.0/img/icon-facebook.svg

<?xml version="1.0" encoding="UTF-8"?>
<svg width="30px" height="29px" viewBox="0 0 30 29" version="1.1" xmlns="http://www.w3.org/2000/svg" xmlns:xlink="http://www.w3.org/1999/xlink">
    <!-- Generator: Sketch 40.3 (33839) - http://www.bohemiancoding.com/sketch -->
    <title>icon-facebook</title>
    <desc>Created with Sketch.</desc>
    <defs></defs>
    <g id="Templates" stroke="none" stroke-width="1" fill="none" fill-rule="evenodd">
        <g id="Landing" transform="translate(-1225.000000, -29.000000)" fill="#0A0B09">
            <g id="icon-facebook" transform="translate(1225.000000, 29.000000)">
                <path d="M2.36315789,26.8534737 C3.42126316,27.8776842 4.64589474,28.4082105 6.13431579,28.4082105 L16.1568421,28.4082105 L16.1568421,17.1934737 L12.0216842,17.1934737 L12.0216842,13.0597895 L16.1568421,13.0597895 L16.1568421,9.98273684 C16.1568421,8.23052632 16.652,6.84084211 17.6776842,5.84905263 C18.6709474,4.85578947 20.0267368,4.36063158 21.6802105,4.36063158 C22.7383158,4.36063158 23.8303158,4.42547368 25.0210526,4.52568421 L25.0210526,8.32926316 L22.5732632,8.36315789 C21.7465263,8.36315789 21.1511579,8.52821053 20.8210526,8.89221053 C20.4570526,9.25621053 20.2905263,9.75136842 20.2905263,10.4130526 L20.2905263,13.0597895 L24.5907368,13.0597895 L24.0292632,17.1934737 L20.2905263,17.1934737 L20.2905263,28.4082105 L23.8303158,28.4082105 C25.2863158,28.4082105 26.5433684,27.8776842 27.6014737,26.8534737 C28.6271579,25.8277895 29.1562105,24.5707368 29.1562105,23.0823158 L29.1562105,5.38484211 C29.1562105,3.93031579 28.6271579,2.67326316 27.6014737,1.64757895 C26.5433684,0.621894737 25.3187368,0.0928421053 23.8303158,0.0928421053 L6.13431579,0.0928421053 C4.64589474,0.0928421053 3.42126316,0.621894737 2.36315789,1.64757895 C1.33747368,2.67326316 0.808421053,3.93031579 0.808421053,5.38484211 L0.808421053,23.0823158 C0.808421053,24.5707368 1.33747368,25.8277895 2.36315789,26.8534737" id="Fill-33"></path>
            </g>
        </g>
    </g>
</svg>

<svg width="30" height="29" viewBox="0 0 30 29" xmlns="http://www.w3.org/2000/svg"><title>icon-facebook</title><path d="M2.363 26.853c1.058 1.025 2.283 1.555 3.771 1.555h10.023V17.193h-4.135V13.06h4.135V9.983c0-1.752.495-3.142 1.52-4.134.994-.993 2.35-1.488 4.003-1.488 1.058 0 2.15.064 3.341.165v3.803l-2.448.034c-.826 0-1.422.165-1.752.53-.364.363-.53.858-.53 1.52v2.647h4.3l-.562 4.133h-3.738v11.215h3.54c1.455 0 2.712-.53 3.77-1.555 1.026-1.025 1.555-2.282 1.555-3.77V5.384c0-1.455-.529-2.712-1.555-3.737C26.543.622 25.32.093 23.831.093H6.133c-1.488 0-2.713.529-3.77 1.555C1.336 2.673.807 3.93.807 5.385v17.697c0 1.489.53 2.746 1.555 3.771" fill="#0A0B09" fill-rule="evenodd"/></svg>
